svgs/ola.svg

<svg xmlns="http://www.w3.org/2000/svg" viewBox="0 0 192 192"><path d="M96 16.5a79.529 79.529 0 0 0-56.215 23.285A79.529 79.529 0 0 0 16.5 96a79.529 79.529 0 0 0 23.285 56.215A79.529 79.529 0 0 0 96 175.5a79.529 79.529 0 0 0 56.215-23.285A79.529 79.529 0 0 0 175.5 96a79.529 79.529 0 0 0-23.285-56.215A79.529 79.529 0 0 0 96 16.5Z" fill="none" stroke="#000" stroke-width="12" stroke-linecap="round" stroke-linejoin="round"/><path d="M96 57.174a38.843 38.843 0 0 0-27.454 11.372A38.843 38.843 0 0 0 57.174 96a38.843 38.843 0 0 0 11.372 27.454A38.843 38.843 0 0 0 96 134.826a38.843 38.843 0 0 0 27.454-11.372A38.843 38.843 0 0 0 134.826 96a38.843 38.843 0 0 0-11.372-27.454A38.843 38.843 0 0 0 96 57.174Z" fill="none" stroke="#000" stroke-width="12" stroke-linecap="round" stroke-linejoin="round"/></svg>

<svg
    xmlns="http://www.w3.org/2000/svg"
    viewBox="0 0 192 192"
    id="vector">
    <path
        id="path"
        d="M 96 16.5 C 74.923 16.5 54.688 24.882 39.785 39.785 C 24.882 54.688 16.5 74.923 16.5 96 C 16.5 117.077 24.882 137.312 39.785 152.215 C 54.688 167.118 74.923 175.5 96 175.5 C 117.077 175.5 137.312 167.118 152.215 152.215 C 167.118 137.312 175.5 117.077 175.5 96 C 175.5 74.923 167.118 54.688 152.215 39.785 C 137.312 24.882 117.077 16.5 96 16.5 Z"
        fill="none"
        stroke="#000000"
        stroke-width="12"
        stroke-linecap="round"
        stroke-linejoin="round"/>
    <path
        id="path_1"
        d="M 96 57.174 C 85.707 57.174 75.825 61.268 68.546 68.546 C 61.268 75.825 57.174 85.707 57.174 96 C 57.174 106.293 61.268 116.175 68.546 123.454 C 75.825 130.732 85.707 134.826 96 134.826 C 106.293 134.826 116.175 130.732 123.454 123.454 C 130.732 116.175 134.826 106.293 134.826 96 C 134.826 85.707 130.732 75.825 123.454 68.546 C 116.175 61.268 106.293 57.174 96 57.174 Z"
        fill="none"
        stroke="#000000"
        stroke-width="12"
        stroke-linecap="round"
        stroke-linejoin="round"/>
</svg>
